dist/images/p-m-third-section/sale.svg

<svg width="76" height="38" viewBox="0 0 76 38" fill="none" xmlns="http://www.w3.org/2000/svg">
<g filter="url(#filter0_d)">
<g clip-path="url(#clip0)">
<rect x="6" y="3.93481" width="63.5" height="25.1047" rx="4.43023" fill="#FF5674"/>
<path d="M26.0435 21.222C28.8789 21.222 30.2227 19.8043 30.2227 18.1504C30.2227 14.3552 24.0942 15.7876 24.0942 13.5872C24.0942 12.8046 24.744 12.1843 26.3389 12.1843C27.2397 12.1843 28.2587 12.4502 29.189 12.9965L29.7945 11.505C28.8937 10.9143 27.5941 10.5895 26.3537 10.5895C23.5183 10.5895 22.1892 12.0071 22.1892 13.6759C22.1892 17.5154 28.3325 16.0534 28.3325 18.2833C28.3325 19.0512 27.6532 19.6271 26.0435 19.6271C24.7735 19.6271 23.4592 19.1546 22.6323 18.49L21.9677 19.9816C22.8242 20.7199 24.4339 21.222 26.0435 21.222ZM35.257 13.0999C33.987 13.0999 32.7613 13.4248 31.9196 14.0746L32.6432 15.4184C33.2339 14.9311 34.1495 14.6357 35.0355 14.6357C36.3498 14.6357 36.9996 15.2707 36.9996 16.3488V16.4669H34.9617C32.5694 16.4669 31.6833 17.5006 31.6833 18.8149C31.6833 20.1883 32.8204 21.1777 34.622 21.1777C35.8034 21.1777 36.6599 20.7938 37.103 20.1145V21.0743H38.8455V16.4521C38.8455 14.1779 37.5312 13.0999 35.257 13.0999ZM35.006 19.8339C34.0609 19.8339 33.4997 19.4056 33.4997 18.7411C33.4997 18.1652 33.8394 17.6926 35.0946 17.6926H36.9996V18.6082C36.6895 19.4204 35.9068 19.8339 35.006 19.8339ZM41.5099 21.0743H43.3558V10.1169H41.5099V21.0743ZM53.4872 17.1757C53.4872 14.7096 51.8037 13.0999 49.5 13.0999C47.152 13.0999 45.4242 14.7834 45.4242 17.1314C45.4242 19.4795 47.1372 21.1777 49.7806 21.1777C51.1392 21.1777 52.2467 20.7347 52.9556 19.8929L51.9662 18.7559C51.405 19.3318 50.7109 19.6124 49.8249 19.6124C48.4515 19.6124 47.4916 18.874 47.2701 17.7221H53.4577C53.4724 17.5449 53.4872 17.3234 53.4872 17.1757ZM49.5 14.5767C50.7109 14.5767 51.5822 15.3593 51.7299 16.4964H47.2553C47.4326 15.3446 48.3038 14.5767 49.5 14.5767Z" fill="white"/>
</g>
</g>
<defs>
<filter id="filter0_d" x="0.0930233" y="0.981326" width="75.314" height="36.9186" filterUnits="userSpaceOnUse" color-interpolation-filters="sRGB">
<feFlood flood-opacity="0" result="BackgroundImageFix"/>
<feColorMatrix in="SourceAlpha" type="matrix" values="0 0 0 0 0 0 0 0 0 0 0 0 0 0 0 0 0 0 127 0"/>
<feOffset dy="2.95349"/>
<feGaussianBlur stdDeviation="2.95349"/>
<feColorMatrix type="matrix" values="0 0 0 0 0 0 0 0 0 0 0 0 0 0 0 0 0 0 0.1 0"/>
<feBlend mode="normal" in2="BackgroundImageFix" result="effect1_dropShadow"/>
<feBlend mode="normal" in="SourceGraphic" in2="effect1_dropShadow" result="shape"/>
</filter>
<clipPath id="clip0">
<rect x="6" y="3.93481" width="63.5" height="25.1047" rx="4.43023" fill="white"/>
</clipPath>
</defs>
</svg>

<svg width="76" height="38" fill="none" xmlns="http://www.w3.org/2000/svg"><g filter="url(#filter0_d)"><g clip-path="url(#clip0)"><rect x="6" y="3.935" width="63.5" height="25.105" rx="4.43" fill="#FF5674"/><path d="M26.044 21.222c2.835 0 4.179-1.418 4.179-3.072 0-3.795-6.129-2.362-6.129-4.563 0-.782.65-1.403 2.245-1.403.9 0 1.92.266 2.85.813l.605-1.492c-.9-.59-2.2-.916-3.44-.916-2.836 0-4.165 1.418-4.165 3.087 0 3.84 6.143 2.377 6.143 4.607 0 .768-.679 1.344-2.288 1.344-1.27 0-2.585-.472-3.412-1.137l-.664 1.492c.856.738 2.466 1.24 4.076 1.24zm9.213-8.122c-1.27 0-2.496.325-3.337.975l.723 1.343c.59-.487 1.507-.782 2.392-.782 1.315 0 1.965.635 1.965 1.713v.118h-2.038c-2.393 0-3.279 1.034-3.279 2.348 0 1.373 1.137 2.363 2.939 2.363 1.181 0 2.038-.384 2.481-1.064v.96h1.742v-4.622c0-2.274-1.314-3.352-3.588-3.352zm-.251 6.734c-.945 0-1.506-.428-1.506-1.093 0-.576.34-1.048 1.595-1.048H37v.915c-.31.812-1.093 1.226-1.994 1.226zm6.504 1.24h1.846V10.117H41.51v10.957zm11.977-3.898c0-2.466-1.683-4.076-3.987-4.076-2.348 0-4.076 1.683-4.076 4.031 0 2.349 1.713 4.047 4.357 4.047 1.358 0 2.466-.443 3.175-1.285l-.99-1.137c-.561.576-1.255.856-2.141.856-1.373 0-2.333-.738-2.555-1.89h6.188a8.07 8.07 0 00.03-.546zm-3.987-2.6c1.21 0 2.082.783 2.23 1.92h-4.475c.178-1.151 1.049-1.92 2.245-1.92z" fill="#fff"/></g></g><defs><clipPath id="clip0"><rect x="6" y="3.935" width="63.5" height="25.105" rx="4.43" fill="#fff"/></clipPath><filter id="filter0_d" x=".093" y=".981" width="75.314" height="36.919" filterUnits="userSpaceOnUse" color-interpolation-filters="sRGB"><feFlood flood-opacity="0" result="BackgroundImageFix"/><feColorMatrix in="SourceAlpha" values="0 0 0 0 0 0 0 0 0 0 0 0 0 0 0 0 0 0 127 0"/><feOffset dy="2.953"/><feGaussianBlur stdDeviation="2.953"/><feColorMatrix values="0 0 0 0 0 0 0 0 0 0 0 0 0 0 0 0 0 0 0.1 0"/><feBlend in2="BackgroundImageFix" result="effect1_dropShadow"/><feBlend in="SourceGraphic" in2="effect1_dropShadow" result="shape"/></filter></defs></svg>
